frontend/public/svg/emojis/wink-emoji.svg

<svg width="160" height="156" viewBox="0 0 160 156" fill="none" xmlns="http://www.w3.org/2000/svg">
<path d="M117.576 81.1304C118.142 93.7051 110.507 106.568 95.1626 110.838C93.8755 111.2 92.7703 112.03 92.064 113.166C89.2565 118.747 84.6066 121.189 78.647 121.198C72.4849 121.207 67.6143 118.749 64.4026 113.162C63.4114 111.644 61.9417 110.5 60.2266 109.912C44.6007 104.621 40.2223 88.0875 43.3622 78.2648C44.3901 75.0483 45.8196 74.0292 48.8052 75.3395C61.9513 81.1061 75.8267 81.2158 89.6527 80.1541C96.4865 79.6293 103.353 77.6363 109.863 75.3401C115.949 73.1942 117.212 73.4882 117.469 79.9082C117.491 80.4696 117.567 81.0282 117.576 81.1304ZM67.5438 87.2289C67.4719 88.6983 67.4798 90.1705 67.5675 91.6391C68.1681 97.3326 68.5156 103.087 69.645 108.678C70.4874 112.841 74.1033 114.858 78.6233 114.826C82.6781 114.797 84.9032 113.212 86.2128 108.958C88.3553 102.001 88.2848 94.8454 88.079 87.2289H67.5438ZM46.5306 81.4583C47.6818 84.1113 48.0684 87.2356 49.4538 87.7691C53.2865 89.2467 57.5363 89.6429 61.8402 90.5103L62.1111 86.3505L46.5306 81.4583ZM112.311 83.1715L95.3922 87.0148C95.4998 88.3014 95.6075 89.588 95.7612 91.4305L111.423 87.4164C111.678 86.1975 111.967 84.8189 112.311 83.1721V83.1715ZM49.7504 93.0109C52.7218 98.5303 56.3695 101.911 62.0549 103.845C61.8673 100.726 61.7109 98.1167 61.5612 95.6254L49.7504 93.0109ZM107.796 93.6881L95.3522 95.62C95.1857 97.9121 95.0137 100.263 94.8166 102.994C100.207 100.913 104.828 98.8141 107.796 93.6874V93.6881Z" fill="black"/>
<path d="M59.6719 44.71C62.0107 45.4264 66.5341 46.6479 70.9274 48.2311C72.9724 48.9672 74.3077 50.7846 73.2358 53.0936C72.2201 55.2896 70.2035 54.9383 68.2432 54.4162C64.3496 53.3801 60.4851 51.9413 56.5197 51.5431C51.67 51.0556 47.1535 52.3766 44.1097 56.7875C43.6783 57.4125 42.4906 58.1303 41.9746 57.9386C41.2027 57.6522 40.0908 56.4538 40.2195 55.8951C40.6935 53.8352 41.1045 51.3772 42.471 49.9782C46.458 45.897 51.7736 44.8021 59.6719 44.71Z" fill="black"/>
<path d="M102.883 50.3539C103.007 48.7653 103.099 47.9838 103.124 47.1969C103.214 44.3434 104.119 41.983 107.306 41.5875C110.439 41.1954 112.775 42.9208 113.389 45.758C114.032 48.5562 114.014 51.4659 113.334 54.2556C112.894 55.8597 110.448 57.9873 108.957 57.9467C107.231 57.8999 105.232 55.9891 103.977 54.3964C103.04 53.208 103.094 51.2396 102.883 50.3539Z" fill="black"/>
<path d="M3.23048 56.8154C-3.77935 84.3665 2.35897 108.671 21.4877 129.067C21.9861 129.594 22.4933 130.12 23.0011 130.624C33.2761 140.899 46.0749 147.244 56.2165 151.659C60.5686 153.559 82.9029 155.868 88.9451 154.968C124.856 149.605 148.489 129.351 156.719 95.4649C158.291 88.8272 159.074 82.0272 159.051 75.206C159.09 59.1373 152.324 40.4562 138.371 26.465C136.935 25.2779 135.503 24.0468 134.12 22.8551C131.117 20.2738 128.014 17.6026 124.768 15.3233C99.9704 -2.12951 74.2056 -2.22769 48.191 7.02823C24.6385 15.4032 9.51237 32.1564 3.23048 56.8154ZM48.2919 15.2785C71.1172 5.793 94.019 4.1191 116.355 18.3256C120.44 20.9259 131.328 29.7268 133.042 31.0479L133.152 31.1299L133.243 31.2301C141.958 40.4711 151.936 57.368 151.716 74.7375C151.643 82.1647 150.638 89.5533 148.724 96.7299C143.049 117.352 129.485 132.382 107.253 142.663C84.6534 153.484 52.2424 142.544 43.6189 136.851C34.0882 130.335 25.7491 122.228 18.966 112.885C8.32667 97.8214 5.93906 76.1697 11.6528 56.3753C14.3285 47.236 19.0045 38.8066 25.3417 31.6985C31.6788 24.5903 39.5184 18.9814 48.2919 15.2785Z" fill="black"/>
</svg>

<svg xmlns="http://www.w3.org/2000/svg" width="160" height="156" fill="none" viewBox="0 0 160 156"><path fill="#000" d="M117.576 81.13c.566 12.575-7.069 25.438-22.413 29.708a5.36 5.36 0 0 0-3.099 2.328c-2.807 5.581-7.457 8.023-13.417 8.032-6.162.009-11.033-2.449-14.244-8.036a8.14 8.14 0 0 0-4.176-3.25C44.6 104.621 40.222 88.088 43.362 78.265c1.028-3.217 2.458-4.236 5.443-2.925 13.146 5.766 27.022 5.876 40.848 4.814 6.834-.525 13.7-2.518 20.21-4.814 6.086-2.146 7.349-1.852 7.606 4.568.022.562.098 1.12.107 1.222m-50.032 6.1a41 41 0 0 0 .023 4.41c.601 5.694.949 11.448 2.078 17.039.842 4.163 4.458 6.18 8.978 6.148 4.055-.029 6.28-1.614 7.59-5.868 2.142-6.957 2.072-14.113 1.866-21.73zm-21.013-5.77c1.15 2.652 1.537 5.777 2.923 6.31 3.832 1.478 8.082 1.874 12.386 2.741l.271-4.16zm65.78 1.712-16.919 3.844.37 4.415 15.661-4.014.888-4.244m-62.56 9.84c2.97 5.52 6.619 8.9 12.304 10.834l-.494-8.22zm58.045.677-12.444 1.93c-.166 2.292-.338 4.643-.535 7.374 5.39-2.081 10.011-4.18 12.979-9.307zM59.672 44.71c2.339.716 6.862 1.938 11.255 3.521 2.045.736 3.38 2.554 2.309 4.863-1.016 2.196-3.032 1.844-4.993 1.322-3.893-1.036-7.758-2.475-11.723-2.873-4.85-.487-9.367.834-12.41 5.245-.432.625-1.62 1.342-2.135 1.15-.772-.286-1.884-1.484-1.756-2.043.474-2.06.886-4.518 2.252-5.917 3.987-4.081 9.303-5.176 17.2-5.268m43.212 5.644c.124-1.589.216-2.37.241-3.157.09-2.854.995-5.214 4.182-5.61 3.133-.392 5.469 1.334 6.083 4.171a18.44 18.44 0 0 1-.055 8.498c-.44 1.604-2.886 3.731-4.377 3.69-1.726-.046-3.725-1.957-4.98-3.55-.937-1.188-.883-3.156-1.094-4.042"/><path fill="#000" d="M3.23 56.815c-7.01 27.552-.871 51.856 18.258 72.252A69 69 0 0 0 23 130.624c10.275 10.275 23.074 16.62 33.216 21.035 4.352 1.9 26.686 4.209 32.728 3.309 35.911-5.363 59.544-25.617 67.774-59.503a86.6 86.6 0 0 0 2.332-20.259c.039-16.069-6.727-34.75-20.68-48.741a274 274 0 0 1-4.251-3.61c-3.003-2.581-6.106-5.252-9.352-7.532C99.97-2.13 74.206-2.227 48.191 7.028 24.638 15.403 9.512 32.156 3.231 56.815M48.292 15.28c22.825-9.486 45.727-11.16 68.063 3.047 4.085 2.6 14.973 11.4 16.687 12.722l.11.082.091.1c8.715 9.241 18.693 26.138 18.473 43.507a88.7 88.7 0 0 1-2.992 21.993c-5.675 20.622-19.239 35.652-41.471 45.933-22.6 10.821-55.01-.119-63.634-5.812a100.7 100.7 0 0 1-24.653-23.966C8.326 97.821 5.939 76.17 11.653 56.375A64.18 64.18 0 0 1 48.292 15.28"/></svg>
